!!!COM:	Praetorius, Michael
!!!OTL:	Alleluja
**kern	**kern	**kern	**kern
*ICvox	*ICvox	*ICvox	*ICvox
*I"Bassus	*I"Tenor	*I"Altus	*I"Diskantus
*clefF4	*clefGv2	*clefG2	*clefG2
*k[]	*k[]	*k[]	*k[]
*M4/4	*M4/4	*M4/4	*M4/4
*met(c)	*met(c)	*met(c)	*met(c)
2c	2e	2g	2cc
4G	4d	4g	4b
4A	4c	4e	4cc
2G	2B	2g	2dd
4G	4d	4g	4b
4E	4e	4g	4cc
4D	4f	4f	4dd
8E	8e	8g	8cc
8G	8d	8g	8b
2.D	2.d	2.f	2.a
=	=	=	=
4E	4B	4e	4g
4A	4c	4f#	4a
4G	4d	4g	4b
2c	2e	2g	2cc
2d	2d	2f#	2a
4B	4d	4g	4dd
4G	4d	4g	4b
2D	2d	2fn	2a
=	=	=	=
4E	4B	4e	4g
4E	4B	4e	4g
4C	4e	4g	4cc
4C	4e	4g	4cc
4G	4d	4g	4b
4G	4B	4g	4dd
2C	2e	2g	2cc
=	=	=	=
4c	4e	4g	4ee
4A	4c	4a	4ff
4G	4d	4.b	4gg
4B	4g	.	4dd
.	.	8g	.
4c	4e	4g	4ee
4G	4g	4b	4dd
2C	2e	2g	2cc
=	=	=	=
2F	2A	2a	2cc
4E	4B	4g	4ee
4D	4d	4a	4ff
2G	2d	2.b	2gg
2E	2e	.	2gg
.	.	4cc	.
4F	4d	4a	4aa
4G	4d	4b	4gg
2A	2c	2a	2ee
2E	2B	2g	2ee
4D	4d	4a	4ff
4C	4g	4cc	4ee
1G	1g	1b	1dd
=	=	=	=
4c	4g	4cc	4ee
4A	4a	4cc	4ff
4G	4d	4b	4gg
4E	4e	4cc	4gg
4F	4d	4a	4aa
4G	4d	4b	4gg
2A	2a	2cc#	2ee
=	=	=	=
4d	4.a	4dd	4ff
4A	.	4ccn	4ee
.	8e	.	.
4B	4g	4b	4dd
4c	4e	4a	4ee
4d	4d	4a	4ff
4A	4c#	4a	4ee
2D	2d	2a	2dd
=	=	=	=
4C	4e	4cc	4gg
8DL	8dL	8aL	8ffL
8EJ	8BJ	8gJ	8eeJ
4D	4d	4a	4ff
4C	4g	2cc	4ee
1G	4g	.	1dd
.	8fL	8bL	.
.	8eJ	8aJ	.
.	2d	2b	.
00C	00e	00g	00cc
==	==	==	==
*-	*-	*-	*-
